X:3113
T:Hr. Oluf og hans forgyldte lyd
C:anon.
O:Denmark
Z:Transcribed by Frank Nordberg - http://www.musicaviva.com
F:http://abc.musicaviva.com/tunes/denmark/hr-oluf-og-hans.abc
M:6/2 %org.: 6
L:1/2
K:Am
E|EEA/A/ BBc|BAG E2E|
w:Hr. Pe-ter og hr. O-luf de sad o-ver bord. Op
DEF E2B|Bde c2B|A2c B2G|
w:un-der den lind. De snak-ked s\aa mangt et sk\aem-tens ord. Op
EEG A2B|cBA GEA|A6|]
w:un-der den lind der v\aag-ner al-k\ae-re-sten min.
W:
W:Hr. Peter og hr. Oluf de sad over bord.
W:Op under den lind.
W:De snakked s\aa mangt et sk\aemtens ord.
W:Op under den lind der v\aagner alk\aeresten min.
W:
W:
W:  From Musica Viva - http://www.musicaviva.com
W:  the Internet center for free sheet music downloads.

